source/images/grid-cross.svg

<svg width="13" height="13" viewBox="0 0 13 13" fill="none" xmlns="http://www.w3.org/2000/svg">
<path fill-rule="evenodd" clip-rule="evenodd" d="M5.5 7.5V12.5H7.5V7.5H12.5V5.5H7.5V0.5H5.5V5.5H0.5V7.5H5.5Z" fill="#4B5563"/>
</svg>

<svg fill="none" height="13" viewBox="0 0 13 13" width="13" xmlns="http://www.w3.org/2000/svg"><path clip-rule="evenodd" d="m5.5 7.5v5h2v-5h5v-2h-5v-5h-2v5h-5v2z" fill="#4b5563" fill-rule="evenodd"/></svg>
